X:68
T:Devon Bonny Breast Knots
T:Bonny Breast Knots (Devon)
R:hp 16 reel
C:Trad arr. P J Headford
Z:PJHeadford 2009
M:2/4
L:1/8
Q:1/4=160
K:G
|:G2BG F2A2|.D2e2 dcBA|G2BG F2A2|d^cdA F2D2:|
K:D
|:f2d2 f2a2|edcd efge|f2d2 f2a2|cdec d4:|]

